icons/glyphs/glyph-envelope-full.svg

<?xml version="1.0" encoding="UTF-8" standalone="no"?><svg height="16" viewBox="0 0 4.2333332 4.2333332" width="16" xmlns="http://www.w3.org/2000/svg"><sodipodi:namedview/><metadata><rdf:RDF><cc:Work><dc:format>image/svg+xml</dc:format><dc:type/><dc:title/></cc:Work></rdf:RDF></metadata><path d="m .0004594.9146308v2.7305825l1.3709182-1.3709183-1.3594346-1.3596642zm.4345413 0 .4308666.4308666-.00368-.4308666zm2.9287905 0 .00368.4304072.4304073-.4304072zm.8578286 0-1.3596643 1.3598939 1.3713777 1.3713777v-2.7312716zm-2.6387133 1.5707337-1.4740415 1.4738118-.108865.1088651v.1378038h4.2331036v-.1378038l-.1090948-.1088651-1.4738118-1.4738118-.5337601.5330711z" fill="#d0d0d0" opacity=".468085" stroke-width=".888792"/><path d="m2.1164847 2.5960604-1.2505072-1.2505073-.0111825-1.3180651h2.5013882l.011183 1.3176908z" fill="#d0d0d0" opacity=".778723"/></svg>

<?xml version="1.0" encoding="UTF-8" standalone="no"?>
<!-- Created with Inkscape (http://www.inkscape.org/) -->

<svg
   xmlns:dc="http://purl.org/dc/elements/1.1/"
   xmlns:cc="http://creativecommons.org/ns#"
   xmlns:rdf="http://www.w3.org/1999/02/22-rdf-syntax-ns#"
   xmlns:svg="http://www.w3.org/2000/svg"
   xmlns="http://www.w3.org/2000/svg"
   xmlns:sodipodi="http://sodipodi.sourceforge.net/DTD/sodipodi-0.dtd"
   xmlns:inkscape="http://www.inkscape.org/namespaces/inkscape"
   width="16"
   height="16"
   viewBox="0 0 4.2333332 4.2333332"
   version="1.1"
   id="svg8"
   inkscape:version="0.92+devel (f96dc7e339, 2017-07-28, custom)"
   sodipodi:docname="glyph-envelope-full.svg">
  <defs
     id="defs2" />
  <sodipodi:namedview
     id="base"
     pagecolor="#002466"
     bordercolor="#ffffff"
     borderopacity="0.38039216"
     inkscape:pageopacity="1"
     inkscape:pageshadow="2"
     inkscape:zoom="36.415999"
     inkscape:cx="10.094581"
     inkscape:cy="7.9162778"
     inkscape:document-units="px"
     inkscape:current-layer="svg8"
     inkscape:document-rotation="0"
     showgrid="false"
     inkscape:showpageshadow="false"
     borderlayer="true"
     inkscape:window-width="1920"
     inkscape:window-height="1051"
     inkscape:window-x="0"
     inkscape:window-y="0"
     inkscape:window-maximized="1"
     units="px" />
  <metadata
     id="metadata5">
    <rdf:RDF>
      <cc:Work
         rdf:about="">
        <dc:format>image/svg+xml</dc:format>
        <dc:type
           rdf:resource="http://purl.org/dc/dcmitype/StillImage" />
        <dc:title></dc:title>
      </cc:Work>
    </rdf:RDF>
  </metadata>
  <path
     style="opacity:0.46808514;fill:#d0d0d0;stroke-width:0.8887924"
     d="M 4.594e-4,0.9146308 V 3.6452133 L 1.3713776,2.274295 0.011943,0.9146308 Z m 0.4345413,0 0.4308666,0.4308666 -0.00368,-0.4308666 z m 2.9287905,0 0.00368,0.4304072 0.4304073,-0.4304072 z m 0.8578286,0 -1.3596643,1.3598939 1.3713777,1.3713777 V 0.9146308 Z M 1.5829065,2.4853645 0.108865,3.9591763 0,4.0680414 V 4.2058452 H 4.2331036 V 4.0680414 L 4.1240088,3.9591763 2.650197,2.4853645 2.1164369,3.0184356 Z"
     id="path821"
     inkscape:connector-curvature="0" />
  <path
     style="opacity:0.77872338;fill:#d0d0d0;stroke:none;stroke-width:0.26458332px;stroke-linecap:butt;stroke-linejoin:miter;stroke-opacity:1"
     d="M 2.1164847,2.5960604 0.8659775,1.3455531 0.854795,0.027488 h 2.5013882 l 0.011183,1.3176908 z"
     id="path826"
     inkscape:connector-curvature="0"
     sodipodi:nodetypes="cccccc" />
</svg>
